X: 45
T:Sgubor y Barwn
T:The Baron's Barn
T:Captain Heapy's Hornpipe
M:2/4
L:1/16
Q:90
S:Cadw Twmpath Collection
R:hornpipe
A:Wales
Z:brian_martin12345@yahoo.com
K:Am
ABcd ecBA|afed ecBA|ABcd ecBA|^GABG EGBe|
ABcd ecBA|afed ecBA|fdcB ecBA|BeE^GA4:||
cedc|c'cc'c|BdcB bBbB|AcBA aAaA|Be^GBE4|
ac'ba agfe|fagf fedc|dfed dcBA|^GBEGA4:||
